tools/download-figma-icons/icons/solid/solar.svg

<svg width="24" height="24" viewBox="0 0 24 24" fill="none" xmlns="http://www.w3.org/2000/svg">
<path fill-rule="evenodd" clip-rule="evenodd" d="M24 12C24 12.4125 23.6625 12.75 23.25 12.75H20.3025C20.1442 14.4825 19.4475 16.065 18.3825 17.325L20.4832 19.425C20.7825 19.7175 20.7825 20.19 20.4832 20.4825C20.34 20.6325 20.1442 20.7075 19.9567 20.7075C19.7625 20.7075 19.575 20.6325 19.425 20.4825L17.3175 18.375C16.05 19.4175 14.475 20.0775 12.75 20.22V23.25C12.75 23.6625 12.4125 24 12 24C11.5875 24 11.25 23.6625 11.25 23.25V20.205C9.5475 20.0325 8.0025 19.3425 6.765 18.2925L4.575 20.4825C4.4325 20.6325 4.2375 20.7075 4.04325 20.7075C3.85575 20.7075 3.66 20.6325 3.51675 20.4825C3.225 20.19 3.225 19.7175 3.51675 19.425L5.715 17.2275C4.695 15.9825 4.035 14.4375 3.8775 12.75H0.75C0.3375 12.75 0 12.4125 0 12C0 11.5875 0.3375 11.25 0.75 11.25H3.8775C4.035 9.5625 4.695 8.0175 5.715 6.7725L3.51675 4.575C3.225 4.2825 3.225 3.81 3.51675 3.5175C3.81 3.225 4.2825 3.225 4.575 3.5175L6.765 5.7075C8.0025 4.6575 9.5475 3.9675 11.25 3.795V0.75C11.25 0.3375 11.5875 0 12 0C12.4125 0 12.75 0.3375 12.75 0.75V3.78C14.475 3.9225 16.05 4.5825 17.3175 5.625L19.425 3.5175C19.7175 3.225 20.19 3.225 20.4832 3.5175C20.7825 3.81 20.7825 4.2825 20.4832 4.575L18.3825 6.675C19.4475 7.935 20.1442 9.5175 20.3025 11.25H23.25C23.6625 11.25 24 11.5875 24 12Z" fill="black"/>
</svg>

<svg xmlns="http://www.w3.org/2000/svg" width="24" height="24" fill="none" viewBox="0 0 24 24"><path fill="currentColor" fill-rule="evenodd" d="M24 12c0 .412-.337.75-.75.75h-2.948a8.24 8.24 0 0 1-1.92 4.575l2.101 2.1c.3.293.3.765 0 1.058a.73.73 0 0 1-1.058 0l-2.108-2.108a8.23 8.23 0 0 1-4.567 1.845v3.03c0 .413-.338.75-.75.75a.75.75 0 0 1-.75-.75v-3.045a8.2 8.2 0 0 1-4.485-1.912l-2.19 2.19a.73.73 0 0 1-1.058 0 .75.75 0 0 1 0-1.058l2.198-2.198a8.26 8.26 0 0 1-1.837-4.477H.75A.75.75 0 0 1 0 12c0-.412.338-.75.75-.75h3.128a8.26 8.26 0 0 1 1.837-4.477L3.517 4.575a.748.748 0 0 1 1.058-1.057l2.19 2.19a8.2 8.2 0 0 1 4.485-1.913V.75c0-.412.338-.75.75-.75s.75.338.75.75v3.03c1.725.143 3.3.802 4.567 1.845l2.108-2.107a.75.75 0 0 1 1.058 0c.3.292.3.765 0 1.057l-2.1 2.1a8.24 8.24 0 0 1 1.92 4.575h2.947c.413 0 .75.338.75.75" clip-rule="evenodd"/></svg>
